X:1
T:Title
%%score 1 { 2 | 3 }
L:1/8
Q:1/4=95
M:4/4
K:Eb
V:1 treble nm="Grand Piano, Soprano"
V:2 bass nm="Choir Pad, Sing On (Allphin)"
V:3 bass 
V:1
 [CE]>[CF] [CA]>[CA] [CA]>[CA] [Ec]>[Ec] | [Ec]>[Ec] [Ae]2 [Ae]2 [Ec]2- | %2
w: By~M.~D.~McWhorter * * * * * * *||
 [Ec]2 [EA]>[EA] [EA]>[EG] [EA][EA]- | [EA][EA] [Ec]2 [Ae]2 [Ge]2 | %4
w: ||
 [CE]>[CF] [CA]>[CA] [CA]>[CA] [Ec]>[Ec] | [Ec]>[Ec] [Ae]2 [Ae]2 [Ec]2- | %6
w: ||
 [Ec]2 [Ec]>[D=B] [Ec]>[DB] [Ec][Ae]- | [Ae][EA] [Ec]2 [_DB]2 [CA]2 | [Ec]2 [Ae]6 | [Ae]2 [Ec]6 | %10
w: ||||
 [=EB]2 [FA]6 | [_DF]2 [CE]6 | [CE]>[CF] [EA]>[EA] [EA]>[EA] [Ec]2 | [Ae]2 [Ae]6 | [Ec]2 [Ae]6 | %15
w: |||||
 [Ae]2 [Ec]6 | [=EB]2 [FA]6 | [FA]2 [CE]6 | [CE]>[CF] [EA]>[EA] [Ec]>[Ae] [Ac]2 | [EB]2 [EA]6- | %20
w: |||||
 [EA]2 z2 z4 |] %21
w: |
V:2
 A,>A, E,>E, E,>E, A,>A, | A,>A,[K:treble] C2 C2 A,2- | A,2 C>C C>C CC- | CC[K:bass] A,2 C2 B,2 | %4
 A,>A, E,>E, E,>E, A,>A, | A,>A, C2 C2 A,2- | A,2 A,>A, A,>A, A,C- | CA, A,2 E,2 E,2 | %8
 z2[K:treble] C2 C>C C2 | z2 A,2 A,>A, A,2 | z2 _D2 D>D D2 | z2[K:bass] A,2 A,>A, A,2 | %12
 A,>A,[K:treble] C>C C>C A,2 | C2 B,6 | z2 C2 C>C C2 | z2 A,2 A,>A, A,2 | z2 _D2 D>D D2 | %17
 z2[K:bass] A,2 A,>A, A,2 | A,>A,[K:treble] C>C A,>C E2 | _D2 C6- | C2 z2 z4 |] %21
V:3
 A,,>A,, A,,>A,, A,,>A,, A,,>A,, | A,,>A,, A,2 A,2 z2 | z2 A,>A, A,>A, A,A,- | A,A, z2 A,2 E,2 | %4
 A,,>A,, A,,>A,, A,,>A,, A,,>A,, | A,,>A,, A,2 A,2 z2 | z4 z2 z A,- | A,C, E,2 z2 A,,2 | %8
 z2 A,2 A,>A, A,2 | z8 | z2 _D,2 D,>D, D,2 | z4 E,>C, A,,2 | A,,>A,, A,,>A,, A,,>A,, z2 | A,2 E,6 | %14
 z2 A,2 A,>A, A,2 | z8 | z2 _D,2 D,>D, D,2 | z4 E,>C, A,,2 | A,,>A,, A,>A, z z/ A,/ E,2 | %19
 E,2 A,,6- | A,,2 z2 z4 |] %21

